dist/img/icon_8_new.svg

<svg width="100" height="100" viewBox="0 0 100 100" fill="none" xmlns="http://www.w3.org/2000/svg">
<g filter="url(#filter0_d)">
<path d="M63.8473 76.1004C73.8727 76.1004 81.9998 67.9733 81.9998 57.9479C81.9998 47.9226 73.8727 39.7954 63.8473 39.7954C53.822 39.7954 45.6948 47.9226 45.6948 57.9479C45.6948 67.9733 53.822 76.1004 63.8473 76.1004Z" fill="url(#paint0_linear)"/>
</g>
<g filter="url(#filter1_bdi)">
<path d="M70.4028 23.3994C65.8646 23.3994 61.4778 24.307 57.2422 25.971C52.7041 27.7863 48.3172 30.5091 44.5354 34.2909C42.8715 35.9549 40.2999 39.2829 40.4511 39.1316C36.2155 36.4087 30.4672 37.0138 26.6855 40.7956C26.3829 41.0981 25.9291 41.5519 25.7778 41.8545C22.7524 45.9388 22.7524 51.5358 25.9291 55.4688C26.2317 55.7714 26.6855 55.6201 26.6855 55.3176C26.8367 54.41 27.2906 53.5023 28.0469 52.746C30.7698 50.0231 34.7028 52.2922 34.7028 52.2922L42.5689 60.1582C42.5689 60.1582 44.838 64.0913 42.1151 66.8142C41.3587 67.5705 40.4511 68.0243 39.5435 68.1756C39.0897 68.1756 39.0897 68.7807 39.3922 68.932C43.3253 72.1086 49.0736 72.1086 53.0066 69.0832C53.4604 68.7807 53.763 68.4781 54.0655 68.1756C57.8473 64.3938 58.3011 58.7968 55.7295 54.4099C57.3935 53.1998 59.0574 51.8383 60.5701 50.3256C64.3519 46.5439 67.0748 42.3083 68.89 37.6189C70.554 33.3833 71.4617 28.9964 71.4617 24.4583C71.4617 23.8532 71.0078 23.3994 70.4028 23.3994Z" fill="#98B5FF" fill-opacity="0.6"/>
</g>
<g filter="url(#filter2_f)">
<path d="M27.2158 41.3259C30.7276 37.8141 36.0302 37.2454 39.9506 39.7022C40.0161 39.7596 40.0971 39.8093 40.1966 39.8443C40.4521 39.9339 40.6625 39.8561 40.7082 39.8389C40.7817 39.8114 40.8342 39.7784 40.8561 39.7641C40.9036 39.7331 40.9371 39.7033 40.9474 39.6941C40.9624 39.6807 40.9743 39.6691 40.9815 39.6619L41.6395 39.0039L41.5363 38.9376C41.7653 38.6456 42.0612 38.2742 42.394 37.8657C43.224 36.8471 44.2626 35.6244 45.0658 34.8212C48.7685 31.1185 53.0664 28.4494 57.5185 26.6683C61.6744 25.0359 65.9678 24.1494 70.4028 24.1494C70.5936 24.1494 70.7117 24.2674 70.7117 24.4583C70.7117 28.8941 69.8249 33.1881 68.192 37.3446L68.1906 37.3481C66.4132 41.9399 63.748 46.0872 60.0398 49.7953C58.5615 51.2736 56.9294 52.6099 55.2884 53.8034L54.7388 54.2031L55.0825 54.7892C57.4935 58.9022 57.0591 64.1213 53.5352 67.6453C53.2335 67.947 52.9766 68.2018 52.5906 68.4592L52.5695 68.4733L52.5493 68.4888C49.0572 71.175 44.0177 71.2982 40.3844 68.7414C41.1979 68.4813 41.9773 68.0126 42.6454 67.3445C44.2411 65.7488 44.3528 63.7998 44.1023 62.3384C43.977 61.6073 43.759 60.9757 43.5739 60.5286C43.481 60.3039 43.3951 60.1229 43.3312 59.9957C43.2992 59.9321 43.2726 59.8818 43.2533 59.846C43.2436 59.8281 43.2357 59.8139 43.2299 59.8034L43.2226 59.7905L43.2202 59.7863L43.2193 59.7847L43.2189 59.784C43.2187 59.7837 43.2186 59.7835 42.5689 60.1582L43.2186 59.7835L43.1691 59.6978L43.0992 59.6279L35.2332 51.7618L35.1633 51.6919L35.0776 51.6425L34.7028 52.2922C35.0776 51.6425 35.0773 51.6424 35.0771 51.6422L35.0764 51.6418L35.0748 51.6409L35.0705 51.6385L35.0577 51.6312C35.0552 51.6298 35.0525 51.6283 35.0495 51.6267C35.0402 51.6215 35.0287 51.6152 35.015 51.6078C34.9793 51.5884 34.929 51.5618 34.8653 51.5299C34.7382 51.466 34.5572 51.3801 34.3325 51.2871C33.8853 51.1021 33.2538 50.8841 32.5227 50.7588C31.0613 50.5082 29.1123 50.6199 27.5166 52.2156C26.8483 52.8839 26.3795 53.6636 26.1194 54.4773C23.5659 50.8602 23.6804 45.946 26.3805 42.3009L26.4194 42.2484L26.4487 42.1899C26.4748 42.1377 26.5639 42.0139 26.7324 41.8267C26.8873 41.6547 27.0624 41.4793 27.2158 41.3259Z" stroke="#FFDFF4" stroke-opacity="0.2" stroke-width="1.5"/>
</g>
<g filter="url(#filter3_bdi)">
<path fill-rule="evenodd" clip-rule="evenodd" d="M35.227 57.2136C34.1755 56.1621 32.3658 56.1239 31.1245 57.241L31.1167 57.2481C30.5601 57.7351 30.0387 58.3268 29.6434 58.9283C29.4119 59.2807 29.235 59.619 29.116 59.9276C29.4437 59.9721 29.902 59.9838 30.4702 59.8702L32.7249 59.4192L31.1787 61.1201L31.1739 61.1255L31.1533 61.1488C31.1344 61.1703 31.1055 61.2037 31.0682 61.2479C30.9936 61.3363 30.8858 61.4677 30.7579 61.6346C30.5011 61.9695 30.168 62.4407 29.8591 62.988C29.3045 63.9704 28.9074 65.0578 28.9973 66.0152C29.8714 66.083 30.9041 65.6762 31.8714 65.0895C32.4105 64.7624 32.8782 64.4109 33.2121 64.1398C33.3784 64.0047 33.5098 63.891 33.5984 63.8122C33.6427 63.7728 33.6763 63.7422 33.698 63.7221L33.7217 63.7001L33.7266 63.6955L35.4609 62.04L34.9907 64.3907C34.878 64.9545 34.8886 65.41 34.9322 65.7371C35.2166 65.6193 35.5257 65.4452 35.8551 65.2128C36.4374 64.8017 37.0377 64.2401 37.6168 63.5886L37.6316 63.572L37.6473 63.5563C38.6739 62.5297 38.6032 60.5899 37.496 59.4827L35.227 57.2136ZM34.4003 66.6627C33.7238 67.0009 33.7237 67.0006 33.7235 67.0003L33.7225 66.9983L33.721 66.9953L33.7176 66.9883L33.709 66.97C33.7025 66.956 33.6946 66.9382 33.6855 66.9169C33.6673 66.8742 33.6446 66.8169 33.6198 66.7457C33.5703 66.6033 33.5125 66.4047 33.4671 66.1551C33.4513 66.0682 33.437 65.9753 33.4251 65.8766C33.1908 66.0428 32.9324 66.2151 32.6559 66.3828C31.4821 67.0948 29.7552 67.8645 28.1361 67.3883L27.7332 67.2698L27.6207 66.8651C27.1573 65.1969 27.8607 63.4508 28.5418 62.2444C28.7054 61.9545 28.874 61.6849 29.0364 61.4418C28.9181 61.4288 28.8078 61.4124 28.7058 61.3938C28.4562 61.3484 28.2576 61.2907 28.1152 61.2411C28.044 61.2164 27.9867 61.1936 27.944 61.1754C27.9227 61.1664 27.905 61.1584 27.8909 61.1519L27.8727 61.1433L27.8656 61.1399L27.8626 61.1384L27.8613 61.1377C27.8609 61.1376 27.86 61.1371 28.1982 60.4606L27.8613 61.1377L27.3813 60.8978L27.4477 60.3668C27.5433 59.6022 27.9112 58.8097 28.3792 58.0976C28.8528 57.3769 29.4645 56.6842 30.1166 56.113C31.9009 54.5108 34.6265 54.4739 36.2966 56.144L38.5657 58.413C40.1762 60.0235 40.4117 62.9109 38.7333 64.6095C38.1061 65.3132 37.4256 65.9558 36.7274 66.4486C36.0312 66.94 35.2701 67.3162 34.4942 67.4132L33.9632 67.4796L33.7235 67.0003L34.4003 66.6627Z" fill="#FF123D"/>
</g>
<g filter="url(#filter4_bdi)">
<circle cx="55" cy="39" r="4" stroke="#98B5FF" stroke-opacity="0.6" stroke-width="2" stroke-linecap="round" stroke-linejoin="round"/>
</g>
<defs>
<filter id="filter0_d" x="35.6948" y="29.7954" width="56.305" height="56.305" filterUnits="userSpaceOnUse" color-interpolation-filters="sRGB">
<feFlood flood-opacity="0" result="BackgroundImageFix"/>
<feColorMatrix in="SourceAlpha" type="matrix" values="0 0 0 0 0 0 0 0 0 0 0 0 0 0 0 0 0 0 127 0"/>
<feOffset/>
<feGaussianBlur stdDeviation="5"/>
<feColorMatrix type="matrix" values="0 0 0 0 0.00833333 0 0 0 0 0.762 0 0 0 0 1 0 0 0 0.5 0"/>
<feBlend mode="normal" in2="BackgroundImageFix" result="effect1_dropShadow"/>
<feBlend mode="normal" in="SourceGraphic" in2="effect1_dropShadow" result="shape"/>
</filter>
<filter id="filter1_bdi" x="13.5273" y="13.3994" width="67.9343" height="67.9343" filterUnits="userSpaceOnUse" color-interpolation-filters="sRGB">
<feFlood flood-opacity="0" result="BackgroundImageFix"/>
<feGaussianBlur in="BackgroundImage" stdDeviation="5"/>
<feComposite in2="SourceAlpha" operator="in" result="effect1_backgroundBlur"/>
<feColorMatrix in="SourceAlpha" type="matrix" values="0 0 0 0 0 0 0 0 0 0 0 0 0 0 0 0 0 0 127 0"/>
<feOffset dy="-2"/>
<feGaussianBlur stdDeviation="4"/>
<feColorMatrix type="matrix" values="0 0 0 0 0 0 0 0 0 0 0 0 0 0 0 0 0 0 0.1 0"/>
<feBlend mode="normal" in2="effect1_backgroundBlur" result="effect2_dropShadow"/>
<feBlend mode="normal" in="SourceGraphic" in2="effect2_dropShadow" result="shape"/>
<feColorMatrix in="SourceAlpha" type="matrix" values="0 0 0 0 0 0 0 0 0 0 0 0 0 0 0 0 0 0 127 0" result="hardAlpha"/>
<feOffset dy="-2"/>
<feGaussianBlur stdDeviation="3.5"/>
<feComposite in2="hardAlpha" operator="arithmetic" k2="-1" k3="1"/>
<feColorMatrix type="matrix" values="0 0 0 0 1 0 0 0 0 1 0 0 0 0 1 0 0 0 0.3 0"/>
<feBlend mode="normal" in2="shape" result="effect3_innerShadow"/>
</filter>
<filter id="filter2_f" x="22.5273" y="22.3994" width="49.9343" height="49.9343" filterUnits="userSpaceOnUse" color-interpolation-filters="sRGB">
<feFlood flood-opacity="0" result="BackgroundImageFix"/>
<feBlend mode="normal" in="SourceGraphic" in2="BackgroundImageFix" result="shape"/>
<feGaussianBlur stdDeviation="0.5" result="effect1_foregroundBlur"/>
</filter>
<filter id="filter3_bdi" x="17.3813" y="44.9014" width="32.5061" height="32.6343" filterUnits="userSpaceOnUse" color-interpolation-filters="sRGB">
<feFlood flood-opacity="0" result="BackgroundImageFix"/>
<feGaussianBlur in="BackgroundImage" stdDeviation="5"/>
<feComposite in2="SourceAlpha" operator="in" result="effect1_backgroundBlur"/>
<feColorMatrix in="SourceAlpha" type="matrix" values="0 0 0 0 0 0 0 0 0 0 0 0 0 0 0 0 0 0 127 0"/>
<feOffset dy="-2"/>
<feGaussianBlur stdDeviation="4"/>
<feColorMatrix type="matrix" values="0 0 0 0 0 0 0 0 0 0 0 0 0 0 0 0 0 0 0.1 0"/>
<feBlend mode="normal" in2="effect1_backgroundBlur" result="effect2_dropShadow"/>
<feBlend mode="normal" in="SourceGraphic" in2="effect2_dropShadow" result="shape"/>
<feColorMatrix in="SourceAlpha" type="matrix" values="0 0 0 0 0 0 0 0 0 0 0 0 0 0 0 0 0 0 127 0" result="hardAlpha"/>
<feOffset dy="-2"/>
<feGaussianBlur stdDeviation="3.5"/>
<feComposite in2="hardAlpha" operator="arithmetic" k2="-1" k3="1"/>
<feColorMatrix type="matrix" values="0 0 0 0 1 0 0 0 0 1 0 0 0 0 1 0 0 0 0.3 0"/>
<feBlend mode="normal" in2="shape" result="effect3_innerShadow"/>
</filter>
<filter id="filter4_bdi" x="40" y="24" width="30" height="30" filterUnits="userSpaceOnUse" color-interpolation-filters="sRGB">
<feFlood flood-opacity="0" result="BackgroundImageFix"/>
<feGaussianBlur in="BackgroundImage" stdDeviation="5"/>
<feComposite in2="SourceAlpha" operator="in" result="effect1_backgroundBlur"/>
<feColorMatrix in="SourceAlpha" type="matrix" values="0 0 0 0 0 0 0 0 0 0 0 0 0 0 0 0 0 0 127 0"/>
<feOffset dy="-2"/>
<feGaussianBlur stdDeviation="4"/>
<feColorMatrix type="matrix" values="0 0 0 0 0 0 0 0 0 0 0 0 0 0 0 0 0 0 0.1 0"/>
<feBlend mode="normal" in2="effect1_backgroundBlur" result="effect2_dropShadow"/>
<feBlend mode="normal" in="SourceGraphic" in2="effect2_dropShadow" result="shape"/>
<feColorMatrix in="SourceAlpha" type="matrix" values="0 0 0 0 0 0 0 0 0 0 0 0 0 0 0 0 0 0 127 0" result="hardAlpha"/>
<feOffset dy="-2"/>
<feGaussianBlur stdDeviation="3.5"/>
<feComposite in2="hardAlpha" operator="arithmetic" k2="-1" k3="1"/>
<feColorMatrix type="matrix" values="0 0 0 0 1 0 0 0 0 1 0 0 0 0 1 0 0 0 0.3 0"/>
<feBlend mode="normal" in2="shape" result="effect3_innerShadow"/>
</filter>
<linearGradient id="paint0_linear" x1="81.5527" y1="57.9479" x2="46.589" y2="57.9479" gradientUnits="userSpaceOnUse">
<stop stop-color="#0075FF"/>
<stop offset="1" stop-color="#5AC4FF"/>
</linearGradient>
</defs>
</svg>

<svg width="100" height="100" fill="none" xmlns="http://www.w3.org/2000/svg"><g filter="url(#filter0_d)"><path d="M63.847 76.1C73.873 76.1 82 67.973 82 57.948s-8.127-18.153-18.153-18.153c-10.025 0-18.152 8.128-18.152 18.153 0 10.025 8.127 18.152 18.152 18.152z" fill="url(#paint0_linear)"/></g><g filter="url(#filter1_bdi)"><path d="M70.403 23.4c-4.538 0-8.925.907-13.16 2.571-4.539 1.815-8.926 4.538-12.708 8.32-1.663 1.664-4.235 4.992-4.084 4.84-4.236-2.722-9.984-2.117-13.765 1.665-.303.302-.757.756-.908 1.059-3.026 4.084-3.026 9.68.151 13.614.303.302.757.151.757-.151.15-.908.605-1.816 1.36-2.572 2.724-2.723 6.657-.454 6.657-.454l7.866 7.866s2.269 3.933-.454 6.656c-.756.757-1.664 1.21-2.572 1.362-.453 0-.453.605-.15.756 3.932 3.177 9.68 3.177 13.614.151.453-.302.756-.605 1.059-.907 3.781-3.782 4.235-9.38 1.663-13.766 1.665-1.21 3.328-2.572 4.841-4.084 3.782-3.782 6.505-8.018 8.32-12.707 1.664-4.236 2.572-8.623 2.572-13.16 0-.606-.454-1.06-1.06-1.06z" fill="#98B5FF" fill-opacity=".6"/></g><g filter="url(#filter2_f)"><path d="M27.216 41.326c3.512-3.512 8.814-4.08 12.735-1.624a.75.75 0 001.03-.04l.658-.658-.103-.066c.23-.292.525-.664.858-1.072.83-1.019 1.869-2.242 2.672-3.045 3.703-3.702 8-6.372 12.453-8.153 4.155-1.632 8.449-2.519 12.884-2.519.19 0 .309.118.309.31 0 4.435-.887 8.73-2.52 12.886l-.001.003c-1.778 4.592-4.443 8.74-8.151 12.447-1.478 1.479-3.11 2.815-4.752 4.008l-.55.4.345.586c2.41 4.113 1.976 9.332-1.548 12.856-.301.302-.558.557-.944.814l-.022.014-.02.016c-3.492 2.686-8.531 2.81-12.165.252a5.635 5.635 0 002.261-1.397c1.596-1.595 1.708-3.544 1.457-5.006a8.585 8.585 0 00-.849-2.492l-.023-.043-.007-.012-.003-.005v-.001l-.001-.001-.65.374.65-.375-.05-.085-.07-.07-7.866-7.866-.07-.07-.085-.05-.375.65.374-.65h0l-.002-.001-.005-.002-.012-.008a.446.446 0 00-.043-.023 8.033 8.033 0 00-.682-.32 8.594 8.594 0 00-1.81-.53c-1.462-.25-3.41-.138-5.006 1.458a5.636 5.636 0 00-1.398 2.261c-2.553-3.617-2.439-8.531.262-12.176l.038-.053.03-.058a2.2 2.2 0 01.283-.363c.155-.172.33-.348.484-.501z" stroke="#FFDFF4" stroke-opacity=".2" stroke-width="1.5"/></g><g filter="url(#filter3_bdi)"><path fill-rule="evenodd" clip-rule="evenodd" d="M35.227 57.214c-1.051-1.052-2.861-1.09-4.102.027l-.008.007a8.496 8.496 0 00-1.474 1.68 5.416 5.416 0 00-.527 1 4.1 4.1 0 001.354-.058l2.255-.45-1.546 1.7-.005.006-.02.023a10.62 10.62 0 00-.395.486c-.258.334-.591.806-.9 1.353-.555.982-.952 2.07-.862 3.027.874.068 1.907-.339 2.874-.925a12.252 12.252 0 001.827-1.368l.024-.022.005-.005 1.734-1.655-.47 2.35a4.102 4.102 0 00-.059 1.347c.285-.118.594-.292.923-.524.582-.411 1.183-.973 1.762-1.624l.015-.017.015-.016c1.027-1.026.956-2.966-.151-4.073l-2.269-2.27zm-.827 9.449l-.676.337-.002-.002-.001-.003-.003-.007-.009-.018a1.93 1.93 0 01-.09-.224 3.969 3.969 0 01-.152-.59 4.705 4.705 0 01-.042-.28c-.234.167-.493.34-.77.507-1.173.712-2.9 1.482-4.519 1.005l-.403-.118-.112-.405c-.464-1.668.24-3.414.92-4.62.164-.29.333-.56.495-.803a4.714 4.714 0 01-.33-.048 3.956 3.956 0 01-.762-.219 1.773 1.773 0 01-.053-.023l-.018-.009-.007-.003-.003-.002h-.002l.337-.677-.337.677-.48-.24.067-.531c.095-.765.463-1.557.931-2.27a10.006 10.006 0 011.738-1.984c1.784-1.602 4.51-1.64 6.18.031l2.269 2.269c1.61 1.61 1.846 4.498.167 6.197-.627.703-1.307 1.346-2.006 1.839-.696.491-1.457.867-2.233.964l-.53.067-.24-.48.676-.337z" fill="#FF123D"/></g><g filter="url(#filter4_bdi)"><circle cx="55" cy="39" r="4" stroke="#98B5FF" stroke-opacity=".6" stroke-width="2" stroke-linecap="round" stroke-linejoin="round"/></g><defs><filter id="filter0_d" x="35.695" y="29.795" width="56.305" height="56.305" filterUnits="userSpaceOnUse" color-interpolation-filters="sRGB"><feFlood flood-opacity="0" result="BackgroundImageFix"/><feColorMatrix in="SourceAlpha" values="0 0 0 0 0 0 0 0 0 0 0 0 0 0 0 0 0 0 127 0"/><feOffset/><feGaussianBlur stdDeviation="5"/><feColorMatrix values="0 0 0 0 0.00833333 0 0 0 0 0.762 0 0 0 0 1 0 0 0 0.5 0"/><feBlend in2="BackgroundImageFix" result="effect1_dropShadow"/><feBlend in="SourceGraphic" in2="effect1_dropShadow" result="shape"/></filter><filter id="filter1_bdi" x="13.527" y="13.399" width="67.934" height="67.934" filterUnits="userSpaceOnUse" color-interpolation-filters="sRGB"><feFlood flood-opacity="0" result="BackgroundImageFix"/><feGaussianBlur in="BackgroundImage" stdDeviation="5"/><feComposite in2="SourceAlpha" operator="in" result="effect1_backgroundBlur"/><feColorMatrix in="SourceAlpha" values="0 0 0 0 0 0 0 0 0 0 0 0 0 0 0 0 0 0 127 0"/><feOffset dy="-2"/><feGaussianBlur stdDeviation="4"/><feColorMatrix values="0 0 0 0 0 0 0 0 0 0 0 0 0 0 0 0 0 0 0.1 0"/><feBlend in2="effect1_backgroundBlur" result="effect2_dropShadow"/><feBlend in="SourceGraphic" in2="effect2_dropShadow" result="shape"/><feColorMatrix in="SourceAlpha" values="0 0 0 0 0 0 0 0 0 0 0 0 0 0 0 0 0 0 127 0" result="hardAlpha"/><feOffset dy="-2"/><feGaussianBlur stdDeviation="3.5"/><feComposite in2="hardAlpha" operator="arithmetic" k2="-1" k3="1"/><feColorMatrix values="0 0 0 0 1 0 0 0 0 1 0 0 0 0 1 0 0 0 0.3 0"/><feBlend in2="shape" result="effect3_innerShadow"/></filter><filter id="filter2_f" x="22.527" y="22.399" width="49.934" height="49.934" filterUnits="userSpaceOnUse" color-interpolation-filters="sRGB"><feFlood flood-opacity="0" result="BackgroundImageFix"/><feBlend in="SourceGraphic" in2="BackgroundImageFix" result="shape"/><feGaussianBlur stdDeviation=".5" result="effect1_foregroundBlur"/></filter><filter id="filter3_bdi" x="17.381" y="44.901" width="32.506" height="32.634" filterUnits="userSpaceOnUse" color-interpolation-filters="sRGB"><feFlood flood-opacity="0" result="BackgroundImageFix"/><feGaussianBlur in="BackgroundImage" stdDeviation="5"/><feComposite in2="SourceAlpha" operator="in" result="effect1_backgroundBlur"/><feColorMatrix in="SourceAlpha" values="0 0 0 0 0 0 0 0 0 0 0 0 0 0 0 0 0 0 127 0"/><feOffset dy="-2"/><feGaussianBlur stdDeviation="4"/><feColorMatrix values="0 0 0 0 0 0 0 0 0 0 0 0 0 0 0 0 0 0 0.1 0"/><feBlend in2="effect1_backgroundBlur" result="effect2_dropShadow"/><feBlend in="SourceGraphic" in2="effect2_dropShadow" result="shape"/><feColorMatrix in="SourceAlpha" values="0 0 0 0 0 0 0 0 0 0 0 0 0 0 0 0 0 0 127 0" result="hardAlpha"/><feOffset dy="-2"/><feGaussianBlur stdDeviation="3.5"/><feComposite in2="hardAlpha" operator="arithmetic" k2="-1" k3="1"/><feColorMatrix values="0 0 0 0 1 0 0 0 0 1 0 0 0 0 1 0 0 0 0.3 0"/><feBlend in2="shape" result="effect3_innerShadow"/></filter><filter id="filter4_bdi" x="40" y="24" width="30" height="30" filterUnits="userSpaceOnUse" color-interpolation-filters="sRGB"><feFlood flood-opacity="0" result="BackgroundImageFix"/><feGaussianBlur in="BackgroundImage" stdDeviation="5"/><feComposite in2="SourceAlpha" operator="in" result="effect1_backgroundBlur"/><feColorMatrix in="SourceAlpha" values="0 0 0 0 0 0 0 0 0 0 0 0 0 0 0 0 0 0 127 0"/><feOffset dy="-2"/><feGaussianBlur stdDeviation="4"/><feColorMatrix values="0 0 0 0 0 0 0 0 0 0 0 0 0 0 0 0 0 0 0.1 0"/><feBlend in2="effect1_backgroundBlur" result="effect2_dropShadow"/><feBlend in="SourceGraphic" in2="effect2_dropShadow" result="shape"/><feColorMatrix in="SourceAlpha" values="0 0 0 0 0 0 0 0 0 0 0 0 0 0 0 0 0 0 127 0" result="hardAlpha"/><feOffset dy="-2"/><feGaussianBlur stdDeviation="3.5"/><feComposite in2="hardAlpha" operator="arithmetic" k2="-1" k3="1"/><feColorMatrix values="0 0 0 0 1 0 0 0 0 1 0 0 0 0 1 0 0 0 0.3 0"/><feBlend in2="shape" result="effect3_innerShadow"/></filter><linearGradient id="paint0_linear" x1="81.553" y1="57.948" x2="46.589" y2="57.948" gradientUnits="userSpaceOnUse"><stop stop-color="#0075FF"/><stop offset="1" stop-color="#5AC4FF"/></linearGradient></defs></svg>
